X:0333
T:Lovely Mally.
M:6/8
L:1/8
Q:3/8=120
I: :: ::
Z:Jack Campin * www.campin.me.uk * 2009
K:D
F|DED dcd|AGF EFG|FED dcd|AGF E2F|
  DED dcd|AGF EFG|FAF GEA|FDD D2:|
A|d2g fga|bgb afa|gag fgf|bge e2f|
  ded fga|bag fed|BAB d2B|AFD D2:|
<end>
<start>
